!!!COM: Bach, Johann Sebastian
!!!CDT: 1685/3//-1750/7/28/
!!!OTL@@DE: O Traurigkeit
!!!AGN: 4-Part Chorale
!!!SCT: BH 57
!!!SCT: BWV 404
**harm	**root	**kern	**kern	**kern	**kern
!	!	!bass	!tenor	!alto	!soprno
*	*Iorgan	*Iorgan	*Iorgan	*Iorgan	*Iorgan
*	*	*clefF4	*clefF4	*clefG2	*clefG2
*k[f#c#g#]	*k[f#c#g#]	*k[f#c#g#]	*k[f#c#g#]	*k[f#c#g#]	*k[f#c#g#]
*f#:	*f#:	*f#:	*f#:	*f#:	*f#:
*M4/4	*M4/4	*M4/4	*M4/4	*M4/4	*M4/4
*met(c)	*met(c)	*met(c)	*met(c)	*met(c)	*met(c)
*MM60	*MM60	*MM60	*MM60	*MM60	*MM60
V	4EE	4C#	4G#	4e#	4cc#
=1	=1	=1	=1	=1	=1
i	4AA	4F#	8F#	4c#	8a
.	.	.	8E#	.	8g#
viio7c/V	4DD#	4FF#	4D#	8c#	4a
.	.	.	.	8B#	.
V	4EE	4C#;	4E#;	4c#;	4g#;
Vd	4EE	4BB	4G#	4c#	4e#
=2	=2	=2	=2	=2	=2
ib	4AA	4AA	4A	4c#	4f#
iv	4DD	4D	8G#	4B	4f#
.	.	.	8F#	.	.
V;	4EE;	4C#;	4G#;	4c#;	4e#;
V	4EE	4C#	4G#	4e#	4cc#
=3	=3	=3	=3	=3	=3
i	4AA	4F#	4A	4f#	4cc#
Vb	4EE	4E#	4G#	4g#	4cc#
VI	4FF	8F#	8A	4f#	4dd
.	.	8G#	8B	.	.
III	4CC	4A	8c#	4e	8cc#
.	.	.	8A	.	8b
=4	=4	=4	=4	=4	=4
V7b/-VII	4DD	4D#	4A	4f#	2b
-VII	4GG	4E	4G#	8e	.
.	.	.	.	8d	.
III;	2CC;	2AA;	2A;	2c#;	2a;
!!linebreak: 2
=5	=5	=5	=5	=5	=5
-VII	4GG	4EE	4B	4e	4g#
VIb	4FF	4FF#	4A	8d	4a
.	.	.	.	8c#	.
-VIIb	4GG	4GG#	4e	8B	4b
.	.	.	.	8b	.
III	4CC	4AA	8E	4a	4cc#
.	.	.	8F#	.	.
=6	=6	=6	=6	=6	=6
V7b	4EE	4E#	8G#	4g#	4b
.	.	.	8C#	.	.
i	4AA	4F#	4c#	4f#	4a
V;	2EE;	2C#;	2c#;	2e#;	2g#;
=7	=7	=7	=7	=7	=7
#viD7	4FF#	4D#	8c#	4c#	4f#
.	.	.	[8B	.	.
V7b	4EE	4E#	8B]	4c#	4g#
.	.	.	[8A	.	.
ib	4AA	8F#	8A]	4c#	4a
.	.	8E	8G#	.	.
ivb	4DD	8D	4F#	8f#	8b
.	.	8C#	.	8e	8cc#
=8	=8	=8	=8	=8	=8
iv	4DD	4BB	4F#	4d	2g#
V7	4EE	4C#	4E#	8c#	.
.	.	.	.	8B	.
i;	2AA;	2FF#;	2C#;	2A;	2f#;
==	==	==	==	==	==
*-	*-	*-	*-	*-	*-
!!chor2scor: -l 2 -s 0.6 -o %b.pmx
!!!YEC: Copyright 2003 by Craig Stuart Sapp
!!!license: GNU General Public License (http://www.gnu.org/copyleft/gpl.html)
!!!SMA: 371 Bach Chorales, edited by Ludwig Erk, C.F. Peters
!!!PDT: 1850, 1865
!!!ONB: Harmony and Root analysis done manually by Craig Sapp
